X: 35088
T: Rolling Off The Log
R: jig
M: 6/8
K: Gmajor
|:c|BAG GDG|BAG d2 g|edg edB|dBA A2 c|
BAG GDG|BAG d2 g|edg edB|1 dBG G2:|2 dBG GBc||
|:dBg fgd|ecg fge|dBg dBG|
[1 BAA ABc|dBg fgd|ecg fge|dBg BAG|BGG GBc:|
[2 BAA A2 c|BAG GDG|BAG d2 g|edg edB|dBG G2||

